output.cube
LUT_3D_SIZE 33
DOMAIN_MIN 0 0 0
DOMAIN_MAX 1 1 1
0.000000 0.000000 0.000000
0.000226 0.000226 0.031476
0.000481 0.000481 0.062853
0.000847 0.000847 0.094196
0.001146 0.001354 0.125704
0.001288 0.002021 0.157346
0.001190 0.002865 0.189096
0.000718 0.003905 0.220964
0.000792 0.004841 0.252963
0.002764 0.005237 0.285103
0.005742 0.005324 0.317390
0.009976 0.004985 0.349831
0.015647 0.004206 0.382433
0.020953 0.005287 0.415140
0.026858 0.006797 0.447865
0.033559 0.008516 0.480600
0.041073 0.010451 0.513344
0.048799 0.012610 0.546097
0.056493 0.015000 0.578858
0.064163 0.017629 0.611626
0.071816 0.020502 0.644401
0.079454 0.023627 0.677181
0.087081 0.027010 0.709967
0.094701 0.030656 0.742758
0.102314 0.034573 0.775554
0.109921 0.038765 0.808354
0.117526 0.043138 0.841158
0.125127 0.047503 0.873966
0.132726 0.051868 0.906778
0.140324 0.056233 0.939593
0.147921 0.060598 0.972411
0.155518 0.064963 1.000000
0.163114 0.069328 1.000000
0.002235 0.033485 0.002235
0.002460 0.033710 0.033711
0.002716 0.033966 0.064473
0.003082 0.034331 0.095366
0.003012 0.034870 0.126913
0.002698 0.035575 0.158619
0.002099 0.036460 0.190424
0.001083 0.037546 0.222338
0.002647 0.037910 0.254385
0.005435 0.037926 0.286565
0.009293 0.037606 0.318888
0.014065 0.037325 0.351355
0.018481 0.038670 0.383906
0.023613 0.040203 0.416492
0.029508 0.041877 0.449106
0.036198 0.043687 0.481745
0.043586 0.045636 0.514405
0.051050 0.047719 0.547084
0.058524 0.049935 0.579778
0.066008 0.052276 0.612487
0.073501 0.054739 0.645208
0.081001 0.057317 0.677941
0.088508 0.060004 0.710684
0.096021 0.062795 0.743435
0.103541 0.065682 0.776195
0.111066 0.068661 0.808963
0.118596 0.071726 0.841737
0.126131 0.074870 0.874517
0.133671 0.078089 0.907303
0.141214 0.081377 0.940095
0.148762 0.084731 0.972891
0.156314 0.088144 1.000000
0.163869 0.091615 1.000000
0.004764 0.065931 0.004764
0.004989 0.066090 0.036240
0.005245 0.066270 0.066270
0.005610 0.066527 0.096675
0.005049 0.066932 0.128328
0.004223 0.067452 0.160095
0.003059 0.068096 0.191952
0.003115 0.068531 0.223920
0.005837 0.068445 0.256013
0.009423 0.068230 0.288234
0.012788 0.068885 0.320557
0.016579 0.069820 0.352944
0.021045 0.070849 0.385381
0.026226 0.071974 0.417863
0.032159 0.073199 0.450383
0.038877 0.074525 0.482937
0.046079 0.075955 0.515520
0.053320 0.077490 0.548129
0.060602 0.079130 0.580760
0.067917 0.080875 0.613411
0.075261 0.082723 0.646080
0.082630 0.084674 0.678765
0.090021 0.086726 0.711464
0.097431 0.088876 0.744175
0.104858 0.091123 0.776898
0.112300 0.093462 0.809632
0.119755 0.095892 0.842374
0.127222 0.098409 0.875126
0.134700 0.101009 0.907885
0.142188 0.103691 0.940651
0.149684 0.106449 0.973424
0.157189 0.109281 1.000000
0.164701 0.112184 1.000000
0.008390 0.098093 0.008391
0.008615 0.098208 0.039866
0.008871 0.098337 0.068783
0.009077 0.098529 0.098694
0.007835 0.098850 0.130444
0.006279 0.099257 0.162272
0.005485 0.099713 0.194186
0.007305 0.100139 0.226189
0.009549 0.100663 0.258267
0.012311 0.101256 0.290415
0.015640 0.101919 0.322629
0.019581 0.102653 0.354903
0.024177 0.103461 0.387231
0.029470 0.104345 0.419609
0.035498 0.105305 0.452031
0.042242 0.106345 0.484492
0.049176 0.107465 0.516989
0.056185 0.108667 0.549518
0.063258 0.109953 0.582074
0.070386 0.111323 0.614657
0.077561 0.112778 0.647262
0.084779 0.114317 0.679887
0.092032 0.115942 0.712531
0.099318 0.117651 0.745191
0.106631 0.119445 0.777867
0.113970 0.121321 0.810556
0.121331 0.123280 0.843258
0.128712 0.125320 0.875971
0.136111 0.127438 0.908695
0.143526 0.129635 0.941428
0.150956 0.131908 0.974170
0.158398 0.134255 1.000000
0.165853 0.136674 1.000000
0.010255 0.131597 0.012785
0.010139 0.131825 0.044038
0.009998 0.132085 0.071643
0.009100 0.132483 0.101303
0.006447 0.133050 0.133044
0.006610 0.133390 0.164876
0.008071 0.133683 0.196773
0.009994 0.134031 0.228729
0.012412 0.134437 0.260743
0.015362 0.134901 0.292816
0.018880 0.135426 0.324946
0.023006 0.136011 0.357131
0.027777 0.136659 0.389368
0.033232 0.137371 0.421654
0.039408 0.138146 0.453985
0.046012 0.138988 0.486358
0.052713 0.139896 0.518770
0.059505 0.140871 0.551217
0.066377 0.141915 0.583696
0.073319 0.143029 0.616204
0.080324 0.144213 0.648739
0.087383 0.145468 0.681299
0.094490 0.146794 0.713881
0.101641 0.148192 0.746483
0.108830 0.149662 0.779104
0.116054 0.151203 0.811741
0.123308 0.152816 0.844394
0.130591 0.154501 0.877062
0.137898 0.156256 0.909743
0.145228 0.158082 0.942435
0.152579 0.159976 0.975139
0.159948 0.161940 1.000000
0.167335 0.163971 1.000000
0.004824 0.167048 0.016298
0.005545 0.167170 0.047205
0.007183 0.167234 0.073886
0.008430 0.167321 0.103924
0.008947 0.167470 0.135671
0.009909 0.167657 0.167502
0.011358 0.167884 0.199390
0.013325 0.168155 0.231324
0.015835 0.168473 0.263306
0.018913 0.168840 0.295333
0.022585 0.169258 0.327408
0.026880 0.169729 0.359530
0.031828 0.170254 0.391698
0.037461 0.170834 0.423910
0.043678 0.171470 0.456166
0.050049 0.172162 0.488462
0.056542 0.172911 0.520797
0.063138 0.173719 0.553168
0.069827 0.174585 0.585573
0.076597 0.175511 0.618009
0.083439 0.176497 0.650474
0.090345 0.177543 0.682967
0.097310 0.178650 0.715484
0.104326 0.179819 0.748025
0.111389 0.181050 0.780587
0.118494 0.182343 0.813169
0.125637 0.183698 0.845769
0.132815 0.185116 0.878386
0.140025 0.186596 0.911019
0.147263 0.188138 0.943666
0.154527 0.189742 0.976326
0.161815 0.191408 1.000000
0.169126 0.193135 1.000000
0.008672 0.201641 0.019111
0.010705 0.201656 0.049659
0.012883 0.201675 0.075800
0.013218 0.201761 0.106651
0.013542 0.201882 0.138329
0.014340 0.202032 0.170138
0.015671 0.202214 0.202016
0.017572 0.202431 0.233941
0.020069 0.202685 0.265906
0.023183 0.202980 0.297909
0.026933 0.203318 0.329950
0.031340 0.203701 0.362030
0.036425 0.204130 0.394149
0.042162 0.204606 0.426307
0.048150 0.205132 0.458504
0.054302 0.205707 0.490738
0.060595 0.206332 0.523008
0.067007 0.207009 0.555314
0.073524 0.207737 0.587652
0.080133 0.208517 0.620023
0.086823 0.209349 0.652423
0.093585 0.210235 0.684851
0.100413 0.211174 0.717307
0.107300 0.212167 0.749786
0.114240 0.213215 0.782290
0.121229 0.214317 0.814815
0.128262 0.215473 0.847360
0.135335 0.216685 0.879924
0.142445 0.217951 0.912506
0.149589 0.219273 0.945105
0.156764 0.220650 0.977719
0.163967 0.222083 1.000000
0.171197 0.223570 1.000000
0.016148 0.236139 0.021095
0.018383 0.236146 0.051333
0.019721 0.236175 0.078418
0.019459 0.236255 0.109493
0.019551 0.236357 0.141041
0.020120 0.236482 0.172796
0.021246 0.236632 0.204653
0.022984 0.236810 0.236568
0.025366 0.237018 0.268523
0.028416 0.237260 0.300513
0.032151 0.237537 0.332534
0.036587 0.237852 0.364588
0.041707 0.238207 0.396675
0.047172 0.238602 0.428794
0.052881 0.239040 0.460947
0.058792 0.239522 0.493133
0.064871 0.240048 0.525352
0.071093 0.240619 0.557604
0.077436 0.241236 0.589886
0.083885 0.241899 0.622199
0.090426 0.242609 0.654542
0.097049 0.243366 0.686912
0.103746 0.244171 0.719310
0.110508 0.245024 0.751733
0.117330 0.245926 0.784180
0.124206 0.246875 0.816650
0.131132 0.247874 0.849141
0.138102 0.248922 0.881653
0.145115 0.250019 0.914184
0.152165 0.251165 0.946734
0.159251 0.252361 0.979300
0.166369 0.253606 1.000000
0.173517 0.254901 1.000000
0.025972 0.270665 0.022198
0.027910 0.270674 0.053059
0.027745 0.270719 0.081821
0.027276 0.270789 0.112488
0.027118 0.270877 0.143838
0.027417 0.270984 0.175499
0.028279 0.271112 0.207311
0.029776 0.271262 0.239206
0.031955 0.271437 0.271150
0.034846 0.271639 0.303130
0.038471 0.271870 0.335140
0.042765 0.272133 0.367178
0.047488 0.272430 0.399244
0.052570 0.272761 0.431337
0.057951 0.273130 0.463459
0.063579 0.273536 0.495610
0.069413 0.273982 0.527789
0.075419 0.274467 0.559998
0.081572 0.274994 0.592235
0.087850 0.275562 0.624500
0.094236 0.276171 0.656793
0.100716 0.276824 0.689113
0.107280 0.277519 0.721460
0.113919 0.278257 0.753831
0.120624 0.279039 0.786226
0.127389 0.279865 0.818645
0.134210 0.280734 0.851086
0.141080 0.281648 0.883548
0.147996 0.282607 0.916030
0.154955 0.283610 0.948531
0.161952 0.284658 0.981050
0.168986 0.285750 1.000000
0.176054 0.286888 1.000000
0.038005 0.305217 0.022968
0.038161 0.305247 0.056949
0.037434 0.305293 0.085513
0.036770 0.305354 0.115668
0.036359 0.305432 0.146748
0.036369 0.305526 0.178267
0.036928 0.305637 0.210007
0.038128 0.305767 0.241864
0.040033 0.305917 0.273789
0.042612 0.306089 0.305757
0.045804 0.306286 0.337758
0.049551 0.306509 0.369785
0.053783 0.306760 0.401837
0.058432 0.307042 0.433914
0.063433 0.307355 0.466014
0.068731 0.307701 0.498139
0.074278 0.308081 0.530289
0.080035 0.308497 0.562465
0.085968 0.308949 0.594666
0.092053 0.309438 0.626893
0.098266 0.309965 0.659145
0.104591 0.310530 0.691423
0.111013 0.311134 0.723725
0.117522 0.311776 0.756051
0.124106 0.312459 0.788400
0.130759 0.313181 0.820773
0.137473 0.313943 0.853167
0.144243 0.314746 0.885582
0.151064 0.315589 0.918018
0.157932 0.316473 0.950474
0.164842 0.317397 0.982948
0.171792 0.318363 1.000000
0.178780 0.319370 1.000000
0.049855 0.339811 0.026950
0.049014 0.339849 0.061986
0.048278 0.339890 0.089503
0.047531 0.339945 0.119057
0.046944 0.340015 0.149795
0.046688 0.340098 0.181122
0.046899 0.340197 0.212755
0.047671 0.340311 0.244553
0.049058 0.340443 0.276446
0.051074 0.340592 0.308397
0.053703 0.340763 0.340386
0.056904 0.340955 0.372404
0.060624 0.341171 0.404446
0.064804 0.341413 0.436510
0.069384 0.341682 0.468596
0.074308 0.341979 0.500703
0.079525 0.342307 0.532832
0.084993 0.342665 0.564983
0.090672 0.343056 0.597157
0.096533 0.343480 0.629353
0.102548 0.343937 0.661572
0.108697 0.344429 0.693815
0.114961 0.344957 0.726080
0.121326 0.345519 0.758367
0.127780 0.346118 0.790677
0.134312 0.346753 0.823008
0.140915 0.347424 0.855361
0.147581 0.348133 0.887734
0.154304 0.348878 0.920128
0.161079 0.349661 0.952541
0.167902 0.350481 0.984973
0.174768 0.351339 1.000000
0.181675 0.352235 1.000000
0.060649 0.374437 0.034123
0.059863 0.374471 0.067375
0.059148 0.374508 0.093795
0.058372 0.374557 0.122671
0.057682 0.374620 0.153000
0.057232 0.374696 0.184084
0.057154 0.374785 0.215573
0.057552 0.374887 0.247287
0.058493 0.375004 0.279131
0.060014 0.375136 0.311053
0.062121 0.375286 0.343025
0.064797 0.375454 0.375032
0.068005 0.375643 0.407065
0.071701 0.375853 0.439120
0.075833 0.376086 0.471195
0.080349 0.376345 0.503290
0.085200 0.376629 0.535403
0.090340 0.376941 0.567536
0.095729 0.377281 0.599689
0.101333 0.377651 0.631862
0.107121 0.378051 0.664055
0.113067 0.378481 0.696268
0.119151 0.378944 0.728503
0.125354 0.379439 0.760758
0.131661 0.379966 0.793034
0.138061 0.380527 0.825330
0.144542 0.381121 0.857647
0.151096 0.381749 0.889983
0.157715 0.382411 0.922339
0.164392 0.383107 0.954713
0.171124 0.383838 0.987106
0.177904 0.384604 1.000000
0.184729 0.385405 1.000000
0.071441 0.409078 0.042269
0.070711 0.409109 0.073085
0.070023 0.409142 0.098385
0.069241 0.409188 0.126519
0.068485 0.409245 0.156378
0.067896 0.409314 0.187168
0.067598 0.409395 0.218476
0.067694 0.409488 0.250079
0.068264 0.409593 0.281854
0.069356 0.409712 0.313735
0.070994 0.409846 0.345681
0.073180 0.409995 0.377672
0.075895 0.410161 0.409694
0.079110 0.410347 0.441740
0.082783 0.410552 0.473806
0.086871 0.410778 0.505891
0.091328 0.411028 0.537993
0.096111 0.411301 0.570113
0.101177 0.411599 0.602250
0.106492 0.411924 0.634404
0.112021 0.412275 0.666577
0.117736 0.412655 0.698768
0.123614 0.413062 0.730978
0.129632 0.413499 0.763206
0.135774 0.413966 0.795454
0.142024 0.414463 0.827720
0.148369 0.414991 0.860005
0.154798 0.415550 0.892309
0.161303 0.416140 0.924632
0.167876 0.416762 0.956972
0.174509 0.417416 0.989331
0.181198 0.418102 1.000000
0.187937 0.418820 1.000000
0.082238 0.443733 0.050625
0.081560 0.443761 0.079083
0.080902 0.443792 0.103261
0.080126 0.443833 0.130608
0.079333 0.443886 0.159941
0.078646 0.443950 0.190390
0.078181 0.444024 0.221478
0.078039 0.444109 0.252940
0.078302 0.444205 0.284626
0.079027 0.444313 0.316450
0.080253 0.444434 0.348360
0.081994 0.444568 0.380327
0.084249 0.444717 0.412334
0.087000 0.444882 0.444369
0.090220 0.445064 0.476426
0.093873 0.445265 0.508503
0.097921 0.445486 0.540596
0.102323 0.445728 0.572705
0.107041 0.445991 0.604830
0.112038 0.446278 0.636971
0.117281 0.446589 0.669128
0.122738 0.446925 0.701302
0.128383 0.447286 0.733492
0.134192 0.447674 0.765699
0.140145 0.448089 0.797923
0.146225 0.448531 0.830164
0.152417 0.449002 0.862423
0.158707 0.449501 0.894699
0.165085 0.450029 0.926992
0.171540 0.450586 0.959303
0.178066 0.451173 0.991631
0.184655 0.451790 1.000000
0.191302 0.452436 1.000000
0.093041 0.478400 0.058986
0.092409 0.478426 0.085338
0.091782 0.478454 0.108410
0.091022 0.478492 0.134936
0.090211 0.478541 0.163697
0.089458 0.478600 0.193760
0.088868 0.478669 0.224591
0.088538 0.478747 0.255883
0.088550 0.478836 0.287456
0.088968 0.478935 0.319206
0.089836 0.479045 0.351068
0.091181 0.479167 0.383003
0.093014 0.479302 0.414988
0.095329 0.479451 0.447009
0.098112 0.479615 0.479056
0.101335 0.479795 0.511123
0.104970 0.479992 0.543208
0.108981 0.480207 0.575309
0.113333 0.480442 0.607425
0.117992 0.480697 0.639555
0.122923 0.480974 0.671700
0.128097 0.481273 0.703860
0.133484 0.481595 0.736034
0.139060 0.481941 0.768224
0.144802 0.482312 0.800429
0.150691 0.482707 0.832649
0.156709 0.483128 0.864886
0.162842 0.483576 0.897138
0.169077 0.484050 0.929407
0.175402 0.484551 0.961692
0.181809 0.485079 0.993992
0.188288 0.485635 1.000000
0.194833 0.486218 1.000000
0.103851 0.513078 0.067354
0.103260 0.513102 0.091821
0.102664 0.513127 0.113817
0.101924 0.513163 0.139501
0.101110 0.513208 0.167651
0.100314 0.513263 0.197288
0.099632 0.513327 0.227826
0.099156 0.513400 0.258918
0.098965 0.513483 0.290355
0.099125 0.513575 0.322012
0.099687 0.513676 0.353812
0.100684 0.513788 0.385705
0.102136 0.513912 0.417662
0.104050 0.514047 0.449663
0.106420 0.514195 0.481696
0.109230 0.514358 0.513753
0.112457 0.514536 0.545830
0.116075 0.514729 0.577923
0.120052 0.514940 0.610031
0.124358 0.515169 0.642152
0.128961 0.515417 0.674287
0.133830 0.515685 0.706436
0.138938 0.515974 0.738598
0.144259 0.516284 0.770774
0.149768 0.516616 0.802963
0.155444 0.516971 0.835167
0.161269 0.517350 0.867385
0.167227 0.517752 0.899618
0.173301 0.518179 0.931865
0.179481 0.518631 0.964128
0.185753 0.519108 0.996405
0.192110 0.519611 1.000000
0.198542 0.520139 1.000000
0.114667 0.547766 0.075727
0.114114 0.547787 0.098505
0.113547 0.547811 0.119462
0.112832 0.547844 0.144297
0.112022 0.547886 0.171805
0.111201 0.547938 0.200980
0.110453 0.547998 0.231191
0.109864 0.548066 0.262053
0.109510 0.548143 0.293331
0.109457 0.548229 0.324877
0.109757 0.548323 0.356600
0.110452 0.548427 0.388440
0.111566 0.548541 0.420360
0.113115 0.548665 0.452335
0.115102 0.548801 0.484350
0.117520 0.548949 0.516394
0.120354 0.549111 0.548460
0.123585 0.549286 0.580545
0.127187 0.549477 0.612645
0.131134 0.549684 0.644759
0.135397 0.549908 0.676886
0.139948 0.550149 0.709026
0.144759 0.550409 0.741178
0.149805 0.550689 0.773342
0.155061 0.550988 0.805519
0.160505 0.551309 0.837709
0.166118 0.551650 0.869912
0.171881 0.552014 0.902128
0.177777 0.552400 0.934358
0.183794 0.552808 0.966602
0.189918 0.553240 0.998859
0.196138 0.553696 1.000000
0.202444 0.554176 1.000000
0.125488 0.582462 0.084106
0.124970 0.582482 0.105365
0.124432 0.582504 0.125329
0.123741 0.582535 0.149314
0.122944 0.582574 0.176158
0.122111 0.582622 0.204839
0.121317 0.582679 0.234692
0.120642 0.582743 0.265298
0.120158 0.582816 0.296393
0.119929 0.582896 0.327808
0.120008 0.582984 0.359438
0.120441 0.583081 0.391213
0.121257 0.583187 0.423086
0.122479 0.583302 0.455028
0.124115 0.583427 0.487020
0.126167 0.583563 0.519047
0.128629 0.583711 0.551100
0.131486 0.583872 0.583175
0.134719 0.584046 0.615267
0.138307 0.584234 0.647374
0.142226 0.584437 0.679494
0.146449 0.584656 0.711626
0.150951 0.584892 0.743769
0.155707 0.585145 0.775925
0.160694 0.585416 0.808092
0.165889 0.585707 0.840270
0.171271 0.586016 0.872461
0.176822 0.586346 0.904664
0.182524 0.586696 0.936879
0.188361 0.587067 0.969106
0.194320 0.587459 1.000000
0.200389 0.587874 1.000000
0.206556 0.588311 1.000000
0.136316 0.617166 0.092491
0.135829 0.617185 0.112382
0.135318 0.617205 0.131400
0.134653 0.617234 0.154544
0.133873 0.617271 0.180708
0.133036 0.617316 0.208869
0.132213 0.617369 0.238336
0.131473 0.617430 0.268659
0.130885 0.617499 0.299547
0.130512 0.617574 0.330813
0.130406 0.617657 0.362334
0.130614 0.617748 0.394030
0.131170 0.617847 0.425846
0.132099 0.617954 0.457748
0.133418 0.618071 0.489709
0.135134 0.618197 0.521715
0.137246 0.618334 0.553753
0.139746 0.618481 0.585816
0.142623 0.618641 0.617898
0.145859 0.618813 0.649997
0.149434 0.618999 0.682109
0.153326 0.619199 0.714234
0.157513 0.619414 0.746371
0.161970 0.619644 0.778518
0.166675 0.619891 0.810677
0.171606 0.620155 0.842846
0.176742 0.620437 0.875027
0.182065 0.620737 0.907218
0.187555 0.621056 0.939421
0.193197 0.621394 0.971635
0.198977 0.621752 1.000000
0.204879 0.622130 1.000000
0.210893 0.622528 1.000000
0.147150 0.651877 0.100881
0.146690 0.651894 0.119537
0.146205 0.651914 0.137659
0.145566 0.651941 0.159976
0.144805 0.651976 0.185450
0.143973 0.652018 0.213070
0.143131 0.652069 0.242125
0.142344 0.652126 0.272140
0.141675 0.652191 0.302800
0.141184 0.652262 0.333897
0.140924 0.652341 0.365293
0.140940 0.652427 0.396897
0.141269 0.652520 0.428646
0.141940 0.652620 0.460498
0.142973 0.652729 0.492423
0.144382 0.652847 0.524402
0.146169 0.652974 0.556420
0.148335 0.653111 0.588468
0.150872 0.653258 0.620539
0.153767 0.653417 0.652628
0.157005 0.653588 0.684733
0.160568 0.653771 0.716851
0.164436 0.653968 0.748980
0.168588 0.654179 0.781121
0.173003 0.654405 0.813272
0.177659 0.654647 0.845434
0.182538 0.654904 0.877606
0.187618 0.655178 0.909787
0.192884 0.655470 0.941980
0.198316 0.655779 0.974182
0.203901 0.656106 1.000000
0.209623 0.656452 1.000000
0.215470 0.656817 1.000000
0.157989 0.686594 0.109276
0.157555 0.686611 0.126813
0.157093 0.686629 0.144089
0.156480 0.686654 0.165598
0.155740 0.686687 0.190379
0.154917 0.686728 0.217441
0.154067 0.686775 0.246063
0.153246 0.686830 0.275747
0.152515 0.686891 0.306157
0.151929 0.686959 0.337066
0.151539 0.687034 0.368322
0.151392 0.687115 0.399820
0.151524 0.687203 0.431491
0.151968 0.687298 0.463283
0.152747 0.687400 0.495165
0.153876 0.687511 0.527111
0.155366 0.687629 0.559104
0.157220 0.687757 0.591133
0.159435 0.687894 0.623190
0.162004 0.688041 0.655268
0.164916 0.688199 0.687364
0.168156 0.688369 0.719474
0.171708 0.688550 0.751597
0.175554 0.688745 0.783731
0.179674 0.688952 0.815876
0.184049 0.689174 0.848031
0.188660 0.689411 0.880195
0.193489 0.689662 0.912369
0.198516 0.689929 0.944553
0.203727 0.690213 0.976746
0.209103 0.690513 1.000000
0.214632 0.690831 1.000000
0.220298 0.691166 1.000000
0.168834 0.721318 0.117676
0.168423 0.721333 0.134198
0.167983 0.721350 0.150675
0.167395 0.721374 0.171401
0.166677 0.721405 0.195489
0.165868 0.721444 0.221981
0.165015 0.721489 0.250150
0.164172 0.721541 0.279482
0.163393 0.721599 0.309622
0.162730 0.721664 0.340325
0.162234 0.721735 0.371424
0.161948 0.721812 0.402804
0.161911 0.721896 0.434384
0.162156 0.721986 0.466109
0.162708 0.722083 0.497938
0.163586 0.722187 0.529845
0.164805 0.722298 0.561809
0.166370 0.722418 0.593815
0.168285 0.722546 0.625855
0.170545 0.722683 0.657920
0.173144 0.722830 0.690005
0.176071 0.722988 0.722106
0.179313 0.723156 0.754222
0.182855 0.723336 0.786349
0.186679 0.723528 0.818487
0.190770 0.723732 0.850636
0.195108 0.723950 0.882793
0.199676 0.724182 0.914960
0.204457 0.724428 0.947136
0.209435 0.724689 0.979322
0.214592 0.724966 1.000000
0.219915 0.725258 1.000000
0.225389 0.725567 1.000000
0.179684 0.756047 0.126080
0.179294 0.756062 0.141677
0.178875 0.756078 0.157405
0.178310 0.756100 0.177372
0.177614 0.756130 0.200773
0.176821 0.756166 0.226685
0.175972 0.756209 0.254386
0.175116 0.756259 0.283349
0.174301 0.756314 0.313200
0.173578 0.756376 0.343680
0.172993 0.756444 0.374606
0.172591 0.756518 0.405853
0.172408 0.756597 0.437331
0.172479 0.756683 0.468978
0.172830 0.756775 0.500747
0.173484 0.756873 0.532608
0.174456 0.756979 0.564536
0.175756 0.757091 0.596516
0.177391 0.757212 0.628535
0.179362 0.757340 0.660583
0.181663 0.757478 0.692655
0.184290 0.757625 0.724747
0.187231 0.757781 0.756854
0.190474 0.757949 0.788974
0.194007 0.758127 0.821105
0.197812 0.758316 0.853247
0.201875 0.758518 0.885399
0.206178 0.758733 0.917560
0.210706 0.758960 0.949729
0.215442 0.759202 0.981907
0.220372 0.759457 1.000000
0.225479 0.759727 1.000000
0.230750 0.760012 1.000000
0.190539 0.790781 0.134488
0.190168 0.790795 0.149242
0.189768 0.790810 0.164264
0.189226 0.790832 0.183500
0.188553 0.790859 0.206223
0.187777 0.790894 0.231552
0.186936 0.790935 0.258772
0.186073 0.790982 0.287347
0.185232 0.791036 0.316893
0.184462 0.791095 0.347132
0.183805 0.791160 0.377872
0.183304 0.791230 0.408972
0.182997 0.791306 0.440337
0.182916 0.791388 0.471895
0.183091 0.791475 0.503596
0.183544 0.791569 0.535403
0.184293 0.791669 0.567291
0.185352 0.791776 0.599238
0.186729 0.791889 0.631232
0.188428 0.792011 0.663261
0.190450 0.792140 0.695318
0.192790 0.792278 0.727397
0.195442 0.792424 0.759494
0.198396 0.792580 0.791606
0.201641 0.792746 0.823731
0.205164 0.792923 0.855866
0.208952 0.793111 0.888012
0.212988 0.793310 0.920167
0.217259 0.793521 0.952330
0.221749 0.793745 0.984502
0.226443 0.793982 1.000000
0.231326 0.794232 1.000000
0.236385 0.794496 1.000000
0.201398 0.825520 0.142901
0.201046 0.825533 0.156882
0.200663 0.825548 0.171242
0.200142 0.825568 0.189776
0.199492 0.825594 0.211833
0.198735 0.825627 0.236575
0.197905 0.825666 0.263304
0.197040 0.825712 0.291479
0.196182 0.825763 0.320703
0.195375 0.825819 0.350687
0.194660 0.825881 0.381224
0.194077 0.825949 0.412165
0.193663 0.826022 0.443405
0.193451 0.826100 0.474864
0.193470 0.826184 0.506488
0.193744 0.826273 0.538235
0.194293 0.826368 0.570074
0.195132 0.826470 0.601985
0.196272 0.826578 0.633949
0.197720 0.826692 0.665955
0.199479 0.826814 0.697994
0.201549 0.826944 0.730059
0.203924 0.827082 0.762144
0.206599 0.827228 0.794247
0.209565 0.827384 0.826363
0.212812 0.827549 0.858492
0.216327 0.827724 0.890631
0.220098 0.827910 0.922780
0.224110 0.828107 0.954937
0.228350 0.828315 0.987104
0.232804 0.828535 1.000000
0.237457 0.828768 1.000000
0.242297 0.829014 1.000000
0.212261 0.860263 0.151317
0.211926 0.860276 0.164589
0.211560 0.860289 0.178329
0.211060 0.860309 0.196189
0.210431 0.860334 0.217593
0.209693 0.860365 0.241751
0.208877 0.860403 0.267981
0.208015 0.860446 0.295743
0.207146 0.860495 0.324631
0.206311 0.860549 0.354345
0.205549 0.860609 0.384666
0.204898 0.860674 0.415435
0.204393 0.860744 0.446538
0.204068 0.860819 0.477889
0.203950 0.860899 0.509427
0.204065 0.860985 0.541105
0.204434 0.861076 0.572891
0.205074 0.861172 0.604759
0.205998 0.861275 0.636689
0.207215 0.861384 0.668668
0.208729 0.861500 0.700686
0.210544 0.861622 0.732733
0.212657 0.861752 0.764805
0.215065 0.861890 0.796896
0.217762 0.862037 0.829004
0.220740 0.862192 0.861124
0.223988 0.862356 0.893257
0.227495 0.862530 0.925399
0.231250 0.862714 0.957551
0.235239 0.862908 0.989712
0.239450 0.863114 1.000000
0.243870 0.863331 1.000000
0.248485 0.863560 1.000000
0.223129 0.895011 0.159737
0.222809 0.895023 0.172358
0.222459 0.895036 0.185513
0.221978 0.895054 0.202729
0.221370 0.895078 0.223496
0.220652 0.895108 0.247074
0.219850 0.895144 0.272800
0.218995 0.895185 0.300140
0.218121 0.895232 0.328679
0.217266 0.895284 0.358109
0.216467 0.895342 0.388201
0.215759 0.895404 0.418786
0.215178 0.895472 0.449740
0.214754 0.895544 0.480973
0.214517 0.895621 0.512415
0.214492 0.895703 0.544018
0.214700 0.895790 0.575743
0.215160 0.895883 0.607562
0.215886 0.895981 0.639454
0.216889 0.896085 0.671402
0.218177 0.896195 0.703395
0.219753 0.896311 0.735423
0.221620 0.896434 0.767478
0.223774 0.896565 0.799556
0.226213 0.896703 0.831653
0.228930 0.896849 0.863765
0.231918 0.897004 0.895890
0.235167 0.897167 0.928026
0.238667 0.897340 0.960172
