output.cube
LUT_3D_SIZE 9
DOMAIN_MIN 0 0 0
DOMAIN_MAX 1 1 1
0.000000 0.000000 0.000000
0.001146 0.001354 0.125704
0.000792 0.004841 0.252963
0.015647 0.004206 0.382433
0.041073 0.010451 0.513344
0.071816 0.020502 0.644401
0.102314 0.034573 0.775554
0.132726 0.051868 0.906778
0.163114 0.069328 1.000000
0.010255 0.131597 0.012785
0.006447 0.133050 0.133044
0.012412 0.134437 0.260743
0.027777 0.136659 0.389368
0.052713 0.139896 0.518770
0.080324 0.144213 0.648739
0.108830 0.149662 0.779104
0.137898 0.156256 0.909743
0.167335 0.163971 1.000000
0.025972 0.270665 0.022198
0.027118 0.270877 0.143838
0.031955 0.271437 0.271150
0.047488 0.272430 0.399244
0.069413 0.273982 0.527789
0.094236 0.276171 0.656793
0.120624 0.279039 0.786226
0.147996 0.282607 0.916030
0.176054 0.286888 1.000000
0.071441 0.409078 0.042269
0.068485 0.409245 0.156378
0.068264 0.409593 0.281854
0.075895 0.410161 0.409694
0.091328 0.411028 0.537993
0.112021 0.412275 0.666577
0.135774 0.413966 0.795454
0.161303 0.416140 0.924632
0.187937 0.418820 1.000000
0.114667 0.547766 0.075727
0.112022 0.547886 0.171805
0.109510 0.548143 0.293331
0.111566 0.548541 0.420360
0.120354 0.549111 0.548460
0.135397 0.549908 0.676886
0.155061 0.550988 0.805519
0.177777 0.552400 0.934358
0.202444 0.554176 1.000000
0.157989 0.686594 0.109276
0.155740 0.686687 0.190379
0.152515 0.686891 0.306157
0.151524 0.687203 0.431491
0.155366 0.687629 0.559104
0.164916 0.688199 0.687364
0.179674 0.688952 0.815876
0.198516 0.689929 0.944553
0.220298 0.691166 1.000000
0.201398 0.825520 0.142901
0.199492 0.825594 0.211833
0.196182 0.825763 0.320703
0.193663 0.826022 0.443405
0.194293 0.826368 0.570074
0.199479 0.826814 0.697994
0.209565 0.827384 0.826363
0.224110 0.828107 0.954937
0.242297 0.829014 1.000000
0.244877 0.964517 0.176587
0.243249 0.964578 0.235703
0.240094 0.964720 0.337133
0.236874 0.964943 0.456364
0.235540 0.965238 0.581566
0.237590 0.965610 0.708874
0.243803 0.966070 0.836983
0.254287 0.966638 0.965431
0.268667 0.967339 1.000000
0.288415 1.000000 0.210324
0.287009 1.000000 0.261517
0.284088 1.000000 0.355455
0.280609 1.000000 0.470547
0.278122 1.000000 0.593758
0.278024 1.000000 0.720133
0.281263 1.000000 0.847805
0.288278 1.000000 0.976044
0.294817 1.000000 1.000000
0.126585 0.003943 0.003943
0.126929 0.005241 0.127832
0.130116 0.005408 0.255491
0.137097 0.007106 0.384930
0.146961 0.014095 0.515174
0.160339 0.024520 0.645808
0.176911 0.038872 0.776678
0.196187 0.055570 0.907702
0.217653 0.072460 1.000000
0.132813 0.134354 0.015426
0.134781 0.134781 0.134781
0.137165 0.136095 0.262442
0.142877 0.138308 0.390900
0.152178 0.141525 0.520093
0.165015 0.145821 0.649865
0.181066 0.151242 0.780062
0.199857 0.157800 0.910565
0.220890 0.165470 1.000000
0.146238 0.271301 0.022830
0.146177 0.271554 0.144774
0.147283 0.272174 0.272038
0.152184 0.273224 0.400117
0.161028 0.274813 0.528626
0.173471 0.277021 0.657575
0.189052 0.279895 0.786944
0.207292 0.283461 0.916683
0.227733 0.287737 1.000000
0.165208 0.409429 0.043717
0.163679 0.409611 0.157059
0.163180 0.409990 0.282429
0.166222 0.410598 0.410252
0.173588 0.411502 0.538544
0.185005 0.412780 0.667115
0.199843 0.414492 0.795972
0.217461 0.416679 0.925125
0.237311 0.419366 1.000000
0.189187 0.547992 0.076745
0.187506 0.548120 0.172369
0.185783 0.548392 0.293764
0.186641 0.548812 0.420761
0.191581 0.549408 0.548853
0.200850 0.550229 0.677275
0.214003 0.551331 0.805902
0.230353 0.552760 0.934732
0.249231 0.554548 1.000000
0.218142 0.686756 0.110043
0.216501 0.686852 0.190867
0.214105 0.687064 0.306514
0.213187 0.687389 0.431806
0.215583 0.687831 0.559406
0.222090 0.688419 0.687661
0.232693 0.689189 0.816170
0.246911 0.690181 0.944843
0.264101 0.691430 1.000000
0.250838 0.825642 0.143507
0.249317 0.825718 0.212261
0.246660 0.825891 0.321014
0.244567 0.826158 0.443668
0.244855 0.826515 0.570320
0.248656 0.826973 0.698232
0.256377 0.827555 0.826598
0.267878 0.828290 0.955170
0.282709 0.829208 1.000000
0.286240 0.964614 0.177083
0.284861 0.964676 0.236081
0.282183 0.964821 0.337413
0.279419 0.965048 0.456594
0.278183 0.965350 0.581774
0.279715 0.965730 0.709073
0.284707 0.966199 0.837177
0.293345 0.966777 0.965624
0.305446 0.967486 1.000000
0.323585 1.000000 0.210740
0.322344 1.000000 0.261853
0.319766 1.000000 0.355710
0.316681 1.000000 0.470754
0.314435 1.000000 0.593941
0.314234 1.000000 0.720304
0.316909 1.000000 0.847971
0.322880 1.000000 0.976207
0.325687 1.000000 1.000000
0.259065 0.007271 0.013941
0.260233 0.008137 0.133362
0.261795 0.011030 0.261101
0.265149 0.016100 0.389689
0.270485 0.023927 0.519044
0.277945 0.035063 0.648971
0.287599 0.049266 0.779300
0.299433 0.064372 0.909911
0.313357 0.080027 1.000000
0.264734 0.138315 0.020349
0.265519 0.138778 0.138318
0.266366 0.140149 0.265978
0.269100 0.142380 0.394222
0.273958 0.145584 0.523072
0.281048 0.149842 0.652478
0.290405 0.155201 0.782337
0.301988 0.161671 0.912547
0.315692 0.169229 1.000000
0.274565 0.273088 0.024105
0.274072 0.273406 0.146974
0.274118 0.274118 0.274119
0.276111 0.275262 0.402179
0.280411 0.276920 0.530620
0.287086 0.279166 0.659455
0.296101 0.282055 0.788687
0.307371 0.285619 0.918281
0.320770 0.289882 1.000000
0.286458 0.410417 0.047210
0.285433 0.410626 0.158730
0.284730 0.411063 0.283832
0.285807 0.411749 0.411619
0.289324 0.412730 0.539897
0.295423 0.414071 0.668440
0.304026 0.415829 0.797253
0.314975 0.418046 0.926347
0.328087 0.420750 1.000000
0.301406 0.548618 0.079255
0.300288 0.548759 0.173772
0.298971 0.549064 0.294840
0.299009 0.549532 0.421759
0.301396 0.550184 0.549833
0.306495 0.551061 0.678245
0.314306 0.552212 0.806858
0.324657 0.553679 0.935667
0.337309 0.555497 1.000000
0.320130 0.687192 0.111958
0.318994 0.687296 0.192089
0.317257 0.687527 0.307411
0.316334 0.687881 0.432596
0.317431 0.688361 0.560163
0.321167 0.688988 0.688407
0.327723 0.689798 0.816909
0.337012 0.690826 0.945574
0.348808 0.692106 1.000000
0.342558 0.825969 0.145031
0.341449 0.826049 0.213339
0.339475 0.826233 0.321800
0.337797 0.826518 0.444332
0.337671 0.826899 0.570938
0.339914 0.827385 0.698833
0.344911 0.827996 0.827191
0.352727 0.828760 0.955758
0.363222 0.829705 1.000000
0.368346 0.964870 0.178334
0.367288 0.964935 0.237037
0.365216 0.965086 0.338119
0.363018 0.965325 0.457175
0.361875 0.965643 0.582301
0.362706 0.966042 0.709575
0.366063 0.966533 0.837669
0.372177 0.967133 0.966110
0.381039 0.967864 1.000000
0.397039 1.000000 0.211792
0.396044 1.000000 0.262704
0.393969 1.000000 0.356354
0.391455 1.000000 0.471278
0.389544 1.000000 0.594404
0.389167 1.000000 0.720738
0.390983 1.000000 0.848390
0.395362 1.000000 0.976619
0.391030 1.000000 1.000000
0.394072 0.022893 0.022905
0.394598 0.024090 0.139523
0.395082 0.027793 0.267350
0.396849 0.033798 0.395570
0.400062 0.042504 0.524322
0.404800 0.053153 0.653602
0.411116 0.065195 0.783336
0.419041 0.078336 0.913431
0.428582 0.092334 1.000000
0.398183 0.145055 0.025121
0.398365 0.145597 0.143038
0.398495 0.147058 0.270733
0.399876 0.149350 0.398881
0.402743 0.152565 0.527445
0.407193 0.156781 0.656469
0.413274 0.162046 0.785927
0.421006 0.168373 0.915756
0.430387 0.175746 1.000000
0.406023 0.276484 0.027272
0.405365 0.276863 0.150444
0.404999 0.277659 0.277357
0.405806 0.278899 0.405411
0.408148 0.280636 0.533788
0.412156 0.282934 0.662490
0.417873 0.285845 0.791540
0.425301 0.289409 0.920932
0.434420 0.293652 1.000000
0.415308 0.412375 0.052920
0.414496 0.412612 0.161528
0.413689 0.413114 0.286165
0.413889 0.413889 0.413890
0.415634 0.414964 0.542153
0.419135 0.416388 0.670662
0.424445 0.418211 0.799412
0.431545 0.420471 0.928422
0.440390 0.423202 1.000000
0.426531 0.549858 0.083494
0.425680 0.550017 0.176179
0.424533 0.550364 0.296681
0.424124 0.550897 0.423465
0.425177 0.551625 0.551509
0.428029 0.552580 0.679908
0.432792 0.553800 0.808501
0.439456 0.555326 0.937278
0.447957 0.557190 1.000000
0.440148 0.688048 0.115251
0.439293 0.688163 0.194211
0.437904 0.688420 0.308969
0.436933 0.688816 0.433968
0.437228 0.689350 0.561477
0.439273 0.690038 0.689703
0.443279 0.690907 0.818195
0.449289 0.691991 0.946847
0.457251 0.693320 1.000000
0.456443 0.826598 0.147680
0.455601 0.826686 0.215223
0.454059 0.826886 0.323175
0.452618 0.827199 0.445495
0.452170 0.827617 0.572019
0.453318 0.828147 0.699884
0.456391 0.828804 0.828229
0.461518 0.829615 0.956789
0.468692 0.830603 1.000000
0.475497 0.965356 0.180524
0.474680 0.965426 0.238716
0.473055 0.965588 0.339362
0.471258 0.965845 0.458199
0.470147 0.966189 0.583227
0.470403 0.966619 0.710459
0.472458 0.967144 0.838534
0.476535 0.967781 0.966966
0.482703 0.968548 1.000000
0.497236 1.000000 0.213641
0.496451 1.000000 0.264204
0.494798 1.000000 0.357492
0.492754 1.000000 0.472202
0.491100 1.000000 0.595222
0.490541 1.000000 0.721504
0.491584 1.000000 0.849131
0.488011 1.000000 0.971529
0.480712 1.000000 1.000000
0.529523 0.048505 0.028044
0.529533 0.049977 0.145671
0.529426 0.053724 0.273583
0.530226 0.059215 0.401783
0.532137 0.066366 0.530264
0.535249 0.075061 0.659123
0.539604 0.085139 0.788377
0.545226 0.096412 0.917994
0.552130 0.108697 1.000000
0.532596 0.154762 0.027840
0.532323 0.155430 0.148475
0.532041 0.156976 0.276072
0.532617 0.159336 0.404246
0.534302 0.162567 0.532669
0.537205 0.166731 0.661419
0.541378 0.171873 0.790529
0.546846 0.178010 0.919987
0.553620 0.185133 1.000000
0.538706 0.281705 0.035138
0.538058 0.282123 0.154990
0.537488 0.282987 0.281476
0.537672 0.284311 0.409534
0.538951 0.286126 0.537883
0.541479 0.288480 0.666477
0.545321 0.291420 0.795354
0.550503 0.294985 0.924532
0.557032 0.299205 1.000000
0.546573 0.415535 0.060635
0.545882 0.415795 0.165424
0.545037 0.416354 0.289360
0.544791 0.417209 0.416988
0.545601 0.418375 0.545241
0.547684 0.419884 0.673723
0.551132 0.421776 0.802409
0.555977 0.424088 0.931322
0.562217 0.426850 1.000000
0.555971 0.551910 0.089428
0.555269 0.552087 0.179620
0.554216 0.552475 0.299299
0.553565 0.553074 0.425882
0.553882 0.553882 0.553884
0.555470 0.554921 0.682269
0.558469 0.556221 0.810842
0.562925 0.557816 0.939581
0.568839 0.559736 1.000000
0.566983 0.689468 0.119962
0.566287 0.689594 0.197286
0.565092 0.689880 0.311227
0.564081 0.690325 0.435951
0.563896 0.690921 0.563376
0.564930 0.691679 0.691576
0.567390 0.692621 0.820056
0.571362 0.693773 0.948693
0.576858 0.695162 1.000000
0.579855 0.827636 0.151522
0.579175 0.827732 0.217979
0.577889 0.827952 0.325189
0.576576 0.828299 0.447196
0.575903 0.828762 0.573601
0.576344 0.829346 0.701421
0.578177 0.830062 0.829749
0.581544 0.830931 0.958299
0.586491 0.831976 1.000000
0.594782 0.966151 0.183729
0.594121 0.966225 0.241187
0.592784 0.966402 0.341195
0.591234 0.966682 0.459708
0.590118 0.967059 0.584592
0.589962 0.967529 0.711761
0.591115 0.968100 0.839810
0.593777 0.968784 0.968229
0.598043 0.969599 1.000000
0.611863 1.000000 0.216366
0.611224 1.000000 0.266421
0.609866 1.000000 0.359177
0.608141 1.000000 0.473572
0.606647 1.000000 0.596433
0.604188 1.000000 0.721013
0.597420 1.000000 0.841676
0.590275 1.000000 0.961018
0.582498 1.000000 1.000000
0.665168 0.076702 0.029634
0.664750 0.078183 0.152073
0.664318 0.081316 0.279737
0.664508 0.085898 0.408029
0.665556 0.091866 0.536451
0.667572 0.099167 0.665096
0.670611 0.107723 0.794033
0.674699 0.117433 0.923280
0.679850 0.128179 1.000000
0.667448 0.167464 0.031831
0.666899 0.168244 0.154520
0.666379 0.169840 0.281694
0.666437 0.172240 0.409933
0.667339 0.175464 0.538336
0.669211 0.179554 0.666939
0.672115 0.184545 0.795806
0.676082 0.190456 0.924965
0.681127 0.197286 1.000000
0.672211 0.288830 0.047001
0.671616 0.289270 0.160459
0.670933 0.290189 0.286222
0.670736 0.291586 0.414259
0.671349 0.293472 0.542620
0.672931 0.295881 0.671155
0.675564 0.298852 0.799902
0.679286 0.302420 0.928895
0.684114 0.306614 1.000000
0.679017 0.420023 0.070051
0.678408 0.420302 0.170343
0.677557 0.420906 0.293299
0.677059 0.421830 0.420772
0.677313 0.423074 0.549019
0.678529 0.424661 0.677488
0.680814 0.426620 0.806125
0.684220 0.428984 0.934950
0.688767 0.431781 1.000000
0.687266 0.554920 0.096916
0.686661 0.555110 0.184071
0.685679 0.555536 0.302656
0.684895 0.556193 0.428958
0.684778 0.557075 0.556901
0.685597 0.558194 0.685275
0.687499 0.559573 0.813832
0.690553 0.561239 0.942536
0.694786 0.563218 1.000000
0.696781 0.691583 0.126039
0.696188 0.691721 0.201320
0.695119 0.692035 0.314185
0.694088 0.692526 0.438538
0.693609 0.693184 0.565848
0.694014 0.694013 0.694015
0.695494 0.695030 0.822483
0.698151 0.696255 0.951105
0.702026 0.697711 1.000000
0.707653 0.829189 0.156555
0.707077 0.829293 0.221627
0.705956 0.829534 0.327861
0.704723 0.829916 0.449448
0.703902 0.830428 0.575692
0.703881 0.831069 0.703452
0.704902 0.831850 0.831758
0.707102 0.832784 0.960296
0.710551 0.833893 1.000000
0.720046 0.967336 0.187973
0.719490 0.967417 0.244479
0.718341 0.967608 0.343644
0.716948 0.967915 0.461724
0.715820 0.968328 0.586413
0.715377 0.968843 0.713499
0.715910 0.969466 0.841512
0.717600 0.970205 0.969914
0.720547 0.971076 1.000000
0.730249 1.000000 0.215046
0.729117 1.000000 0.264340
0.726464 1.000000 0.355508
0.722339 1.000000 0.467336
0.717089 1.000000 0.586376
0.711029 1.000000 0.707233
0.704324 1.000000 0.827728
0.696966 1.000000 0.946912
0.688778 1.000000 1.000000
0.800669 0.105170 0.039553
0.800124 0.106512 0.158959
0.799518 0.109208 0.285878
0.799316 0.113163 0.414226
0.799772 0.118306 0.542691
0.801013 0.124601 0.671264
0.803108 0.132008 0.800023
0.806091 0.140475 0.929018
0.809983 0.149930 1.000000
0.802383 0.183009 0.045994
0.801837 0.183788 0.161211
0.801185 0.185392 0.287511
0.800904 0.187790 0.415760
0.801264 0.190973 0.544208
0.802405 0.194961 0.672765
0.804402 0.199779 0.801493
0.807293 0.205443 0.930441
0.811100 0.211956 1.000000
0.806305 0.297881 0.060205
0.805757 0.298334 0.166777
0.805016 0.299295 0.291438
0.804571 0.300751 0.419377
0.804730 0.302697 0.547768
0.805657 0.305154 0.676293
0.807442 0.308152 0.804964
0.810134 0.311719 0.933821
0.813758 0.315883 1.000000
0.812216 0.425901 0.080867
0.811671 0.426193 0.176214
0.810830 0.426833 0.297868
0.810177 0.427812 0.425100
0.810070 0.429124 0.553331
0.810708 0.430779 0.681804
0.812205 0.432800 0.810413
0.814622 0.435214 0.939171
0.817993 0.438045 1.000000
0.819581 0.558975 0.105778
0.819046 0.559177 0.189487
0.818123 0.559632 0.306693
0.817267 0.560339 0.432617
0.816877 0.561285 0.560477
0.817197 0.562476 0.688840
0.818370 0.563927 0.817389
0.820476 0.565660 0.946066
0.823556 0.567697 1.000000
0.828091 0.694494 0.133384
0.827571 0.694641 0.206288
0.826595 0.694980 0.317820
0.825564 0.695513 0.441695
0.824901 0.696227 0.568855
0.824895 0.697123 0.696980
0.825725 0.698210 0.825436
0.827493 0.699506 0.954047
0.830256 0.701029 1.000000
0.837691 0.831351 0.162732
0.837189 0.831462 0.226159
0.836184 0.831723 0.331187
0.835011 0.832138 0.452242
0.834098 0.832697 0.578278
0.833769 0.833395 0.705963
0.834240 0.834239 0.834242
0.835643 0.835241 0.962768
0.838053 0.836415 1.000000
0.848463 0.968992 0.193240
0.847979 0.969079 0.248597
0.846963 0.969285 0.346719
0.845680 0.969618 0.464251
0.844544 0.970069 0.588693
0.843902 0.970631 0.715671
0.844004 0.971307 0.843639
0.845013 0.972104 0.972022
0.847030 0.973035 1.000000
0.834991 1.000000 0.190392
0.834045 1.000000 0.242838
0.831793 1.000000 0.336781
0.828190 1.000000 0.449794
0.823432 1.000000 0.569112
0.817714 1.000000 0.689882
0.811137 1.000000 0.810181
0.803691 1.000000 0.929168
0.795249 1.000000 1.000000
0.936110 0.133799 0.056684
0.935598 0.134941 0.166485
0.934903 0.137304 0.292101
0.934447 0.140794 0.420378
0.934489 0.145329 0.548910
0.935167 0.150876 0.677493
0.936561 0.157408 0.806177
0.938717 0.164897 0.935021
0.941658 0.173300 1.000000
0.937510 0.200942 0.062048
0.937001 0.201691 0.168616
0.936283 0.203266 0.293532
0.935778 0.205626 0.421661
0.935756 0.208735 0.550164
0.936365 0.212598 0.678738
0.937687 0.217226 0.807408
0.939772 0.222633 0.936228
0.942647 0.228823 1.000000
0.940806 0.308836 0.074306
0.940303 0.309294 0.173918
0.939537 0.310281 0.297051
0.938927 0.311781 0.424766
0.938765 0.313772 0.553176
0.939218 0.316265 0.681724
0.940379 0.319280 0.810366
0.942307 0.322840 0.939138
0.945032 0.326966 1.000000
0.945961 0.433193 0.092820
0.945468 0.433494 0.182980
0.944645 0.434161 0.302987
0.943894 0.435186 0.429857
0.943538 0.436554 0.558045
0.943768 0.438268 0.686531
0.944698 0.440344 0.815135
0.946397 0.442803 0.943851
0.948904 0.445666 1.000000
0.952573 0.564123 0.115831
0.952093 0.564334 0.195817
0.951222 0.564813 0.311355
0.950328 0.565561 0.436783
0.949757 0.566562 0.564523
0.949734 0.567814 0.692871
0.950396 0.569330 0.821419
0.951826 0.571124 0.950081
0.954075 0.573215 1.000000
0.960306 0.698265 0.141880
0.959842 0.698420 0.212153
0.958940 0.698780 0.322100
0.957920 0.699348 0.445380
0.957141 0.700112 0.572344
0.956858 0.701067 0.700415
0.957236 0.702219 0.828859
0.958378 0.703581 0.957463
0.960345 0.705167 1.000000
0.969009 0.834192 0.169980
0.968562 0.834310 0.231551
0.967646 0.834588 0.335153
0.966525 0.835034 0.455558
0.965555 0.835635 0.581335
0.965019 0.836387 0.708923
0.965107 0.837291 0.837170
0.965945 0.838355 0.965685
0.967612 0.839593 1.000000
0.978675 0.971188 0.199490
0.978246 0.971280 0.253529
0.977328 0.971501 0.350414
0.976130 0.971859 0.467283
0.974994 0.972345 0.591420
0.974216 0.972952 0.718266
0.974013 0.973681 0.846178
0.974536 0.974535 0.974538
0.975880 0.975526 1.000000
0.937108 1.000000 0.156894
0.936322 1.000000 0.215079
0.934419 1.000000 0.313566
0.931289 1.000000 0.428457
0.927010 1.000000 0.548281
0.921676 1.000000 0.669017
0.915333 1.000000 0.789104
0.907959 1.000000 0.907858
0.899457 1.000000 1.000000
1.000000 0.162464 0.073838
1.000000 0.163451 0.174743
1.000000 0.165548 0.298500
1.000000 0.168675 0.426519
1.000000 0.172742 0.555089
1.000000 0.177713 0.683719
1.000000 0.183564 0.812394
1.000000 0.190278 0.941163
1.000000 0.197829 1.000000
1.000000 0.220847 0.078399
1.000000 0.221555 0.176783
1.000000 0.223077 0.299801
1.000000 0.225369 0.427631
1.000000 0.228381 0.556154
1.000000 0.232101 0.684772
1.000000 0.236533 0.813439
1.000000 0.241682 0.942197
1.000000 0.247555 1.000000
1.000000 0.321621 0.089074
1.000000 0.322077 0.181870
1.000000 0.323078 0.303041
1.000000 0.324603 0.430365
1.000000 0.326624 0.558753
1.000000 0.329138 0.687335
1.000000 0.332157 0.815984
1.000000 0.335698 0.944716
1.000000 0.339778 1.000000
1.000000 0.441900 0.105693
1.000000 0.442206 0.190598
1.000000 0.442893 0.308608
1.000000 0.443955 0.434963
1.000000 0.445369 0.563062
1.000000 0.447133 0.691558
1.000000 0.449256 0.820174
1.000000 0.451754 0.948873
1.000000 0.454644 1.000000
1.000000 0.570387 0.126905
1.000000 0.570604 0.203013
1.000000 0.571103 0.316596
1.000000 0.571885 0.441389
1.000000 0.572931 0.568959
1.000000 0.574237 0.697280
1.000000 0.575809 0.825832
1.000000 0.577657 0.954491
1.000000 0.579798 1.000000
1.000000 0.702934 0.151405
1.000000 0.703096 0.218870
1.000000 0.703472 0.326993
1.000000 0.704072 0.449548
1.000000 0.704878 0.576263
1.000000 0.705884 0.704261
1.000000 0.707094 0.832690
1.000000 0.708515 0.961291
1.000000 0.710159 1.000000
1.000000 0.837762 0.178217
1.000000 0.837886 0.237768
1.000000 0.838180 0.339736
1.000000 0.838652 0.459368
1.000000 0.839291 0.584829
1.000000 0.840090 0.712297
1.000000 0.841048 0.840504
1.000000 0.842172 0.969006
1.000000 0.843469 1.000000
1.000000 0.973977 0.206667
1.000000 0.974074 0.259248
1.000000 0.974308 0.354717
1.000000 0.974689 0.470805
1.000000 0.975208 0.594577
1.000000 0.975857 0.721261
1.000000 0.976634 0.849106
1.000000 0.971026 0.970928
1.000000 0.961574 1.000000
1.000000 1.000000 0.108439
1.000000 1.000000 0.179070
1.000000 1.000000 0.285418
1.000000 1.000000 0.403287
1.000000 1.000000 0.523976
1.000000 1.000000 0.644778
1.000000 1.000000 0.764659
1.000000 1.000000 0.883149
1.000000 1.000000 1.000000
