output.cube
LUT_3D_SIZE 5
DOMAIN_MIN 0 0 0
DOMAIN_MAX 1 1 1
0.000000 0.000000 0.000000
0.000792 0.004841 0.252963
0.041073 0.010451 0.513344
0.102314 0.034573 0.775554
0.163114 0.069328 1.000000
0.025972 0.270665 0.022198
0.031955 0.271437 0.271150
0.069413 0.273982 0.527789
0.120624 0.279039 0.786226
0.176054 0.286888 1.000000
0.114667 0.547766 0.075727
0.109510 0.548143 0.293331
0.120354 0.549111 0.548460
0.155061 0.550988 0.805519
0.202444 0.554176 1.000000
0.201398 0.825520 0.142901
0.196182 0.825763 0.320703
0.194293 0.826368 0.570074
0.209565 0.827384 0.826363
0.242297 0.829014 1.000000
0.288415 1.000000 0.210324
0.284088 1.000000 0.355455
0.278122 1.000000 0.593758
0.281263 1.000000 0.847805
0.294817 1.000000 1.000000
0.259065 0.007271 0.013941
0.261795 0.011030 0.261101
0.270485 0.023927 0.519044
0.287599 0.049266 0.779300
0.313357 0.080027 1.000000
0.274565 0.273088 0.024105
0.274118 0.274118 0.274119
0.280411 0.276920 0.530620
0.296101 0.282055 0.788687
0.320770 0.289882 1.000000
0.301406 0.548618 0.079255
0.298971 0.549064 0.294840
0.301396 0.550184 0.549833
0.314306 0.552212 0.806858
0.337309 0.555497 1.000000
0.342558 0.825969 0.145031
0.339475 0.826233 0.321800
0.337671 0.826899 0.570938
0.344911 0.827996 0.827191
0.363222 0.829705 1.000000
0.397039 1.000000 0.211792
0.393969 1.000000 0.356354
0.389544 1.000000 0.594404
0.390983 1.000000 0.848390
0.391030 1.000000 1.000000
0.529523 0.048505 0.028044
0.529426 0.053724 0.273583
0.532137 0.066366 0.530264
0.539604 0.085139 0.788377
0.552130 0.108697 1.000000
0.538706 0.281705 0.035138
0.537488 0.282987 0.281476
0.538951 0.286126 0.537883
0.545321 0.291420 0.795354
0.557032 0.299205 1.000000
0.555971 0.551910 0.089428
0.554216 0.552475 0.299299
0.553882 0.553882 0.553884
0.558469 0.556221 0.810842
0.568839 0.559736 1.000000
0.579855 0.827636 0.151522
0.577889 0.827952 0.325189
0.575903 0.828762 0.573601
0.578177 0.830062 0.829749
0.586491 0.831976 1.000000
0.611863 1.000000 0.216366
0.609866 1.000000 0.359177
0.606647 1.000000 0.596433
0.597420 1.000000 0.841676
0.582498 1.000000 1.000000
0.800669 0.105170 0.039553
0.799518 0.109208 0.285878
0.799772 0.118306 0.542691
0.803108 0.132008 0.800023
0.809983 0.149930 1.000000
0.806305 0.297881 0.060205
0.805016 0.299295 0.291438
0.804730 0.302697 0.547768
0.807442 0.308152 0.804964
0.813758 0.315883 1.000000
0.819581 0.558975 0.105778
0.818123 0.559632 0.306693
0.816877 0.561285 0.560477
0.818370 0.563927 0.817389
0.823556 0.567697 1.000000
0.837691 0.831351 0.162732
0.836184 0.831723 0.331187
0.834098 0.832697 0.578278
0.834240 0.834239 0.834242
0.838053 0.836415 1.000000
0.834991 1.000000 0.190392
0.831793 1.000000 0.336781
0.823432 1.000000 0.569112
0.811137 1.000000 0.810181
0.795249 1.000000 1.000000
1.000000 0.162464 0.073838
1.000000 0.165548 0.298500
1.000000 0.172742 0.555089
1.000000 0.183564 0.812394
1.000000 0.197829 1.000000
1.000000 0.321621 0.089074
1.000000 0.323078 0.303041
1.000000 0.326624 0.558753
1.000000 0.332157 0.815984
1.000000 0.339778 1.000000
1.000000 0.570387 0.126905
1.000000 0.571103 0.316596
1.000000 0.572931 0.568959
1.000000 0.575809 0.825832
1.000000 0.579798 1.000000
1.000000 0.837762 0.178217
1.000000 0.838180 0.339736
1.000000 0.839291 0.584829
1.000000 0.841048 0.840504
1.000000 0.843469 1.000000
1.000000 1.000000 0.108439
1.000000 1.000000 0.285418
1.000000 1.000000 0.523976
1.000000 1.000000 0.764659
1.000000 1.000000 1.000000
